X:1
T:60 Lessons for 2 Guitars, Op.168 - Joseph Küffner (1776 - 1856)
T:Leçon No.59
T:60 Lessons for 2 Guitars, Op.168 "à l'usage des commençants"
T:Joseph Küffner (1776 - 1856)
%%score { ( 1 2 ) ( 3 4 ) } { 5 6 }
L:1/8
Q:1/4=52
M:2/4
K:C
V:1 treble-8 nm="Classical Guitar"
V:2 treble-8 
V:3 tab stafflines=6 strings=E2,A2,D3,G3,B3,E4 nostems nm="Guitare classique [Tablature]"
V:4 tab stafflines=6 strings=E2,A2,D3,G3,B3,E4 nostems 
V:5 treble-8 nm="Guitare classique"
V:6 tab stafflines=6 strings=E2,A2,D3,G3,B3,E4 nostems nm="Guitare classique [Tablature]"
V:1
"^Moderato e ben marcato" z4 |"_Marche Czigane" z4 |:"_"{dcB} c[cf]/>[ce]/ !>![ce]2 | %3
{dcB} c[ca]/>[cg]/ !>![cg]2 |{/^g} a{/e}f{/^f} =g.B/.d/ | (d/c/){/^F} G{/B,} C2 :: %6
"_" !arpeggio![ce]!arpeggio![Be] !arpeggio![ce]c/>B/ | AG !>![Gc]2 | %8
 !arpeggio![ce]!arpeggio![Be] !arpeggio![ce]c/>B/ | A^G !fermata![^CA] !fermata!A, :: %10
"_"{dcB} c[cf]/>[ce]/ !>![ce]2 |{dcB} c[ca]/>[cg]/ !>![cg]2 |{/^g} a{/e}f{/^f} =g.B/.d/ | %13
 (d/c/){/^F} G{/B,} C2 ::"_" [Gdg] !>![Gdg]3 | [Gce] !>![Gce]3 |{/f} !>!e2{/f} !>!e2 | %17
{/d} c.c/.B/ !>![A,A]2 |"_" [Gdg] [Gdg]3 | [Gce] !>![Gce]3 |{/e} [Gd]2 [Gd]e/>d/ | [Ec]4 :| %22
V:2
 x4 | x4 |: x4 | x4 | x4 | x4 :: G^G A z | z F E2 | G^G A z | z B, x2 :: x4 | x4 | x4 | x4 :: x4 | %15
 x4 | x4 | x4 | x4 | x4 | x4 | x4 :| %22
V:3
 x4 | x4 |:{!2!D!2!C!2!B,} !2!C [!2!C!1!F]3/4 [!2!C!1!E]/4 [!2!C!1!E]2 | %3
{!2!D!2!C!2!B,} !2!C [!3!C!1!A]3/4 [!3!C!1!G]/4 [!3!C!1!G]2 | %4
{/!1!^G} !1!A{/!1!E} !1!F{/!1!^F} !1!=G !2!B,/ !2!D/ | %5
 (!2!D/ !2!C/){/!4!^F,} !4!G,{/!5!B,,} !5!C,2 :: %6
 [!2!C!1!E] [!2!B,!1!E] [!2!C!1!E] !2!C3/4 !2!B,/4 | !3!A, !3!G, [!3!G,!2!C]2 | %8
 [!2!C!1!E] [!2!B,!1!E] [!2!C!1!E] !2!C3/4 !2!B,/4 | !3!A, !3!^G, [!5!^C,!3!A,] !5!A,, :: %10
{!2!D!2!C!2!B,} !2!C [!2!C!1!F]3/4 [!2!C!1!E]/4 [!2!C!1!E]2 | %11
{!2!D!2!C!2!B,} !2!C [!3!C!1!A]3/4 [!3!C!1!G]/4 [!3!C!1!G]2 | %12
{/!1!^G} !1!A{/!1!E} !1!F{/!1!^F} !1!=G !2!B,/ !2!D/ | %13
 (!2!D/ !2!C/){/!4!^F,} !4!G,{/!5!B,,} !5!C,2 :: [!3!G,!2!D!1!G] [!3!G,!2!D!1!G]3 | %15
 [!3!G,!2!C!1!E] [!3!G,!2!C!1!E]3 |{/!1!F} !1!E2{/!1!F} !1!E2 | %17
{/!2!D} !2!C !2!C/ !2!B,/ [!5!A,,!3!A,]2 | [!3!G,!2!D!1!G] [!3!G,!2!D!1!G]3 | %19
 [!3!G,!2!C!1!E] [!3!G,!2!C!1!E]3 |{/!2!E} [!3!G,!2!D]2 [!3!G,!2!D] !1!E3/4 !2!D/4 | %21
 [!4!E,!2!C]4 :| %22
V:4
 x4 | x4 |: x4 | x4 | x4 | x4 :: !3!G, !3!^G, !3!A, x | x !4!F, !4!E,2 | !3!G, !3!^G, !3!A, x | %9
 x !5!B,, x2 :: x4 | x4 | x4 | x4 :: x4 | x4 | x4 | x4 | x4 | x4 | x4 | x4 :| %22
V:5
"_" C/4c/4C/4c/4 C C/4c/4C/4c/4 C | C/4c/4C/4c/4 C C/4c/4C/4c/4 C |: %2
"_" !arpeggio![CEGc][A,A] !>![G,G]2 | !arpeggio![CEGc][F,F] !>![E,E]2 | [FA][DA][B,G][G,F] | %5
 [CE][G,D] C2 ::"_" CE [CA]C/>B,/ | A,!arpeggio![B,DG] !>![CEG]2 | CE [CA]C/>B,/ | %9
 A,[E,E^G] !fermata![A,EA] !fermata!A, ::"_" !arpeggio![CEGc][A,A] !>![G,G]2 | %11
 !arpeggio![CEGc][F,F] !>![E,E]2 | [FA][DA][B,G][G,F] | [CE][G,D] C2 ::"_" [B,GB] !>![B,GB]3 | %15
 [CGc] !>![CGc]3 | !arpeggio!!>![CGc]2 !arpeggio!!>![B,^Gd]2 | %17
 !arpeggio![A,EAc]!arpeggio![A,EAc] !>![CEA]2 |"_" [B,GB] !>![B,GB]3 | [CGc] !>![CGc]3 | %20
 !arpeggio![G,FGB]2 !arpeggio![G,FGB]2 | !arpeggio![CEGc]4 :| %22
V:6
 !5!C,/4 !2!C/4 !5!C,/4 !2!C/4 !5!C, !5!C,/4 !2!C/4 !5!C,/4 !2!C/4 !5!C, | %1
 !5!C,/4 !2!C/4 !5!C,/4 !2!C/4 !5!C, !5!C,/4 !2!C/4 !5!C,/4 !2!C/4 !5!C, |: %2
 [!5!C,!4!E,!3!G,!2!C] [!5!A,,!3!A,] [!6!G,,!3!G,]2 | %3
 [!5!C,!4!E,!3!G,!2!C] [!6!F,,!4!F,] [!6!E,,!4!E,]2 | %4
 [!4!F,!3!A,] [!4!D,!3!A,] [!5!B,,!3!G,] [!6!G,,!4!F,] | [!5!C,!4!E,] [!6!G,,!4!D,] !5!C,2 :: %6
 !5!C, !4!E, [!5!C,!3!A,] !5!C,3/4 !5!B,,/4 | !5!A,, [!5!B,,!4!D,!3!G,] [!5!C,!4!E,!3!G,]2 | %8
 !5!C, !4!E, [!5!C,!3!A,] !5!C,3/4 !5!B,,/4 | %9
 !5!A,, [!6!E,,!4!E,!3!^G,] [!5!A,,!4!E,!3!A,] !5!A,, :: %10
 [!5!C,!4!E,!3!G,!2!C] [!5!A,,!3!A,] [!6!G,,!3!G,]2 | %11
 [!5!C,!4!E,!3!G,!2!C] [!6!F,,!4!F,] [!6!E,,!4!E,]2 | %12
 [!4!F,!3!A,] [!4!D,!3!A,] [!5!B,,!3!G,] [!6!G,,!4!F,] | [!5!C,!4!E,] [!6!G,,!4!D,] !5!C,2 :: %14
 [!5!B,,!3!G,!2!B,] [!5!B,,!3!G,!2!B,]3 | [!5!C,!3!G,!2!C] [!5!C,!3!G,!2!C]3 | %16
 [!5!C,!3!G,!2!C]2 [!5!B,,!3!^G,!2!D]2 | %17
 [!5!A,,!4!E,!3!A,!2!C] [!5!A,,!4!E,!3!A,!2!C] [!5!C,!4!E,!3!A,]2 | %18
 [!5!B,,!3!G,!2!B,] [!5!B,,!3!G,!2!B,]3 | [!5!C,!3!G,!2!C] [!5!C,!3!G,!2!C]3 | %20
 [!6!G,,!4!F,!3!G,!2!B,]2 [!6!G,,!4!F,!3!G,!2!B,]2 | [!5!C,!4!E,!3!G,!2!C]4 :| %22

